!!!COM: Gomółka, Mikołaj
!!!CDT: ~1535-after 1591
!!!OTL: Słuchay, słuchay co żywo
!!!OTL@LAT: Audite haec omnes
!!!AGn: Motet; Psalm
!!!SCn: Gom2049
!!!SCn: Gom2049
!!!voices: 4
!!!CNT: Polish
!!!OCY: Poland
!!!LYR: Jan Kochanowski (1530-1584/08/22)
!!!GTL: Melodiae na Psałterz Polski
!!!EFL: 49/150
!!!PPR: Łazarz Andrysowicz
!!!PPP: Kraków
!!!PDT: 1580
!!!YEC: 2015 Marcin Konik
!!!ENC: Marcin Konik
!!!END: 2015/05/19
!!!EED: Marcin Konik
!!!EEV: 2015/05/19
!!!ONB: Translated from MusicXML and edited on 2015/03/06 by Marcin Konik
!!!CharacterEncoding: utf-8
!!muse2ps: i2I150v85,85,85,150Q16
**kern	**kern	**kern	**kern
*staff4	*staff3	*staff2	*staff1
*Ivox	*Ivox	*Ivox	*Ivox
*I"Bassus	*I"Tenor	*I"Altus	*I"Cantus
*I'B	*I'T	*I'A	*I'C
*clefF4	*clefC3	*clefC3	*clefC1
*k[b-]	*k[b-]	*k[b-]	*k[b-]
*M2/1	*M2/1	*M2/1	*M2/1
*met(C|)	*met(C|)	*met(C|)	*met(C|)
=1-	=1-	=1-	=1-
1C	1e	1g	1cc
1F	1f	1a	1cc
=2	=2	=2	=2
2r	2r	2r	2r
2F	2f	2a	2cc
2c	2e	2.g	2cc
2c	2e	.	2cc
.	.	4a	.
=3	=3	=3	=3
1B-	2.d	1b-	1dd
.	4e	.	.
2F	2f	2a	2cc
[2C	[2e	[2g	[2cc
=4	=4	=4	=4
2C]	2e]	2g]	2cc]
2F	2f	2a	2a
2G	2d	2g	2b-
2C	2c	2g	2cc
=5	=5	=5	=5
2F	4F	1f	1a
.	4G	.	.
2FF	4A	.	.
.	4B-	.	.
2C	2c	2e	2g
2C	2c	2e	2g
=6	=6	=6	=6
2D	2A	2d	2f
2BB-	2B-	2d	2f
1D	2.A	1d	1f
.	4B-	.	.
=7	=7	=7	=7
2C	2c	2G	2e
2D	2f	2d	2f
2E	4e	2c	2g
.	4d	.	.
2F	2c	2f	2a
=8	=8	=8	=8
2B-	2d	4f	2b-
.	.	4g	.
2A	2e	2a	2cc
4D	1f	1a	1dd
4E	.	.	.
4F	.	.	.
4G	.	.	.
=9	=9	=9	=9
2.A	2e	2a	2.cc
.	2e	4A	.
4G	.	4B-	4b-
2F	2.f	2c	2a
2C	.	2c	2g
.	4e	.	.
=10	=10	=10	=10
2D	2d	2A	2f
2AA	2c	2A	2e
1BB-	1B-	1F	1d
=11	=11	=11	=11
2FF	2.A	2F	2c
2FF	.	2f	2a
.	4G	.	.
2FF	4A	2f	2a
.	4B-	.	.
2C	2c	2e	4g
.	.	.	4a
=12	=12	=12	=12
4GG	1B-	1d	2b-
4AA	.	.	.
4BB-	.	.	2b-
4C	.	.	.
4D	4F	2d	1a
4E	4G	.	.
2F	4A	4c	.
.	4B-	4d	.
=13	=13	=13	=13
2C	2c	4e	2g
.	.	4f	.
1G	4B-	2g	1b-
.	4A	.	.
.	4B-	1d	.
.	4c	.	.
2F	2r	.	2a
=14	=14	=14	=14
2E-	2B-	2e-	1g
2C	2c	2e-	.
2D	2A	2d	2f
[2F	4A	[2c	[2a
.	4G	.	.
=15	=15	=15	=15
2F]	4A	2c]	2a]
.	4B-	.	.
2E-	2c	2G	2g
2D	2A	2d	1f
2BB-	2B-	2d	.
=16	=16	=16	=16
2C	2G	2c	2e
2AA	2A	2c	1f
2BB-	2G	2B-	.
2C	2G	4A	2e
.	.	4G	.
=17	=17	=17	=17
0FF	0F	0A	0f
==	==	==	==
*-	*-	*-	*-
